docs/assets/waving-dolla-bills.svg

<?xml version="1.0" encoding="UTF-8" standalone="no"?>
<svg
   width="166"
   height="154"
   viewBox="0 0 166 154"
   fill="none"
   version="1.1"
   id="svg4"
   sodipodi:docname="waving-dolla-bills.svg"
   inkscape:version="1.3.2 (091e20e, 2023-11-25)"
   xmlns:inkscape="http://www.inkscape.org/namespaces/inkscape"
   xmlns:sodipodi="http://sodipodi.sourceforge.net/DTD/sodipodi-0.dtd"
   xmlns="http://www.w3.org/2000/svg"
   xmlns:svg="http://www.w3.org/2000/svg">
  <sodipodi:namedview
     id="namedview4"
     pagecolor="#ffffff"
     bordercolor="#000000"
     borderopacity="0.25"
     inkscape:showpageshadow="2"
     inkscape:pageopacity="0.0"
     inkscape:pagecheckerboard="0"
     inkscape:deskcolor="#d1d1d1"
     inkscape:zoom="3.2905657"
     inkscape:cx="104.8452"
     inkscape:cy="75.215031"
     inkscape:window-width="1440"
     inkscape:window-height="770"
     inkscape:window-x="0"
     inkscape:window-y="25"
     inkscape:window-maximized="0"
     inkscape:current-layer="svg4" />
  <path
     d="M 29.305497,133.916 C 77.6764,154.359 98.9918,88.8804 141.007,89.1098 c 6.68441,-5.787494 7.27907,-5.787494 13.847,-9.2917 C 148.522,59.709 142.19,39.5993 135.856,19.4827 87.4849,-0.960361 66.1695,64.5179 24.1539,64.2885 c -8.46831,7.60927 -6.885566,5.417714 -13.8479,9.288 1.973871,6.268667 18.999497,60.3395 18.999497,60.3395 z"
     fill="#086219"
     id="path5"
     style="fill:#0eca33;fill-opacity:1;stroke:#0eca33;stroke-width:5;stroke-linejoin:round;stroke-dasharray:none;stroke-opacity:1"
     sodipodi:nodetypes="ccccccc" />
  <path
     d="m 17.5545,69.9416 c 0.3472,1.1028 0.6947,2.2063 1.042,3.3092 C 62.0693,82.5931 83.25,21.091 125.24,25.7081 c 5.984,19.0062 11.97,38.0162 17.956,57.0262 1.443,0.1601 2.92,0.3958 4.423,0.7186 C 141.288,63.3476 134.954,43.2303 128.621,23.1175 83.6358,13.4552 62.527,79.6072 17.5545,69.9416 Z"
     fill="#086219"
     id="path1"
     style="display:inline" />
  <path
     d="m 24.1539,64.2885 c 0.3472,1.1028 0.6947,2.2063 1.042,3.3092 40.6072,0.2237 61.8875,-60.95942 106.9561,-46.5651 5.984,19.0062 11.97,38.0162 17.956,57.0262 1.552,0.4926 3.136,1.0825 4.746,1.7593 C 148.522,59.709 142.19,39.5993 135.856,19.4827 87.4849,-0.960361 66.1695,64.5179 24.1539,64.2885 Z"
     fill="#086219"
     id="path2"
     style="display:inline" />
  <path
     d="M 10.306,73.5765 C 16.6391,93.6893 22.9712,113.799 29.3055,133.916 77.6764,154.359 98.9918,88.8804 141.007,89.1098 134.674,68.997 128.341,48.8835 122.009,28.7745 79.9933,28.5444 58.677,94.0195 10.306,73.5765 Z m 74.7534,37.6495 c -12.2327,10.689 -26.5148,5.512 -30.4476,-6.978 -3.824,-12.1446 4.1688,-26.9415 16.4014,-37.6304 12.2535,-10.6381 25.5399,-8.6232 29.4878,3.915 3.825,12.1029 -3.1738,30.0554 -15.4416,40.6934 z"
     fill="#086219"
     id="path3"
     sodipodi:nodetypes="cccccccccc"
     style="display:inline" />
  <path
     d="m 84.9763,82.5718 c -1.3067,0.1682 -3.5826,1.1364 -6.8548,2.8184 -0.9923,-3.1513 -1.9846,-6.3027 -2.9771,-9.4547 1.8112,-1.4321 3.3219,-1.858 4.5472,-1.2424 0.6619,0.3361 1.1958,0.9593 1.5917,1.87 1.1354,-0.9678 2.2621,-1.9328 3.3943,-2.8954 -0.7635,-2.1391 -2.0381,-3.2879 -3.8332,-3.449 -1.7906,-0.1618 -4.0036,0.7783 -6.6345,2.7491 -0.267,-0.8482 -0.5327,-1.692 -0.7998,-2.5402 -0.6174,0.5157 -1.2307,1.0268 -1.8517,1.5312 0.2705,0.8589 0.5411,1.7184 0.8127,2.5811 -2.6035,2.1764 -4.412,4.5683 -5.3981,7.2624 -0.9809,2.6801 -1.1699,4.9787 -0.5508,6.9449 0.6923,2.1988 1.9306,3.4295 3.6905,3.6459 1.7614,0.2208 4.1607,-0.5222 7.1514,-2.314 1.1081,3.5192 2.2198,7.0497 3.3303,10.5769 -2.262,1.632 -4.0368,1.988 -5.3222,1.164 -0.7269,-0.452 -1.4216,-1.528 -2.0837,-3.2204 -1.1744,0.8895 -2.346,1.7574 -3.5382,2.5904 0.7017,2.228 1.6384,3.723 2.8124,4.479 2.148,1.419 5.1923,0.806 9.0583,-2.068 0.3946,1.253 0.7915,2.514 1.1861,3.767 0.6198,-0.508 1.2331,-1.019 1.8505,-1.535 -0.3946,-1.253 -0.7903,-2.51 -1.1849,-3.763 2.2624,-2.218 3.8846,-4.2831 4.8716,-6.1447 1.7834,-3.3619 2.1304,-6.7574 1.0471,-10.198 -0.7566,-2.3748 -2.1864,-3.4298 -4.3151,-3.1555 z m -8.8211,3.9856 C 74.608,87.4696 73.286,87.89 72.1862,87.8528 71.084,87.808 70.3349,87.1364 69.931,85.8537 c -0.3344,-1.0619 -0.2809,-2.3566 0.1448,-3.9012 0.4307,-1.5462 1.5084,-3.0438 3.2065,-4.5191 0.9592,3.0464 1.916,6.0852 2.8729,9.124 z m 10.1372,6.3666 c -0.3628,2.2298 -1.6309,4.3444 -3.8143,6.3021 -1.0715,-3.4028 -2.1406,-6.7982 -3.2144,-10.2086 1.7623,-0.9094 3.0493,-1.4259 3.8945,-1.5193 1.4483,-0.1713 2.4392,0.5471 2.9496,2.1681 0.3215,1.0211 0.3786,2.1082 0.1846,3.2577 z"
     fill="#086219"
     id="path4"
     style="display:inline" />
  <defs
     id="defs4">
    <clipPath
       id="clip0_90_272">
      <rect
         width="136"
         height="118"
         fill="white"
         transform="translate(0 40.8463) rotate(-17.4781)"
         id="rect4" />
    </clipPath>
  </defs>
</svg>

<svg width="166" height="154" viewBox="0 0 166 154" fill="none" xmlns="http://www.w3.org/2000/svg">
<g clip-path="url(#clip0_90_272)">
<path d="M17.5545 69.9416C17.9017 71.0444 18.2492 72.1479 18.5965 73.2508C62.0693 82.5931 83.25 21.091 125.24 25.7081C131.224 44.7143 137.21 63.7243 143.196 82.7343C144.639 82.8944 146.116 83.1301 147.619 83.4529C141.288 63.3476 134.954 43.2303 128.621 23.1175C83.6358 13.4552 62.527 79.6072 17.5545 69.9416Z" fill="#086219"/>
<path d="M24.1539 64.2885C24.5011 65.3913 24.8486 66.4948 25.1959 67.5977C65.8031 67.8214 87.0834 6.63828 132.152 21.0326C138.136 40.0388 144.122 59.0488 150.108 78.0588C151.66 78.5514 153.244 79.1413 154.854 79.8181C148.522 59.709 142.19 39.5993 135.856 19.4827C87.4849 -0.960361 66.1695 64.5179 24.1539 64.2885Z" fill="#086219"/>
<path d="M10.306 73.5765C16.6391 93.6893 22.9712 113.799 29.3055 133.916C77.6764 154.359 98.9918 88.8804 141.007 89.1098C134.674 68.997 128.341 48.8835 122.009 28.7745C79.9933 28.5444 58.677 94.0195 10.306 73.5765ZM85.0594 111.226C72.8267 121.915 58.5446 116.738 54.6118 104.248C50.7878 92.1034 58.7806 77.3065 71.0132 66.6176C83.2667 55.9795 96.5531 57.9944 100.501 70.5326C104.326 82.6355 97.3272 100.588 85.0594 111.226Z" fill="#086219"/>
<path d="M84.9763 82.5718C83.6696 82.74 81.3937 83.7082 78.1215 85.3902C77.1292 82.2389 76.1369 79.0875 75.1444 75.9355C76.9556 74.5034 78.4663 74.0775 79.6916 74.6931C80.3535 75.0292 80.8874 75.6524 81.2833 76.5631C82.4187 75.5953 83.5454 74.6303 84.6776 73.6677C83.9141 71.5286 82.6395 70.3798 80.8444 70.2187C79.0538 70.0569 76.8408 70.997 74.2099 72.9678C73.9429 72.1196 73.6772 71.2758 73.4101 70.4276C72.7927 70.9433 72.1794 71.4544 71.5584 71.9588C71.8289 72.8177 72.0995 73.6772 72.3711 74.5399C69.7676 76.7163 67.9591 79.1082 66.973 81.8023C65.9921 84.4824 65.8031 86.781 66.4222 88.7472C67.1145 90.946 68.3528 92.1767 70.1127 92.3931C71.8741 92.6139 74.2734 91.8709 77.2641 90.0791C78.3722 93.5983 79.4839 97.1288 80.5944 100.656C78.3324 102.288 76.5576 102.644 75.2722 101.82C74.5453 101.368 73.8506 100.292 73.1885 98.5996C72.0141 99.4891 70.8425 100.357 69.6503 101.19C70.352 103.418 71.2887 104.913 72.4627 105.669C74.6107 107.088 77.655 106.475 81.521 103.601C81.9156 104.854 82.3125 106.115 82.7071 107.368C83.3269 106.86 83.9402 106.349 84.5576 105.833C84.163 104.58 83.7673 103.323 83.3727 102.07C85.6351 99.852 87.2573 97.7869 88.2443 95.9253C90.0277 92.5634 90.3747 89.1679 89.2914 85.7273C88.5348 83.3525 87.105 82.2975 84.9763 82.5718ZM76.1552 86.5574C74.608 87.4696 73.286 87.89 72.1862 87.8528C71.084 87.808 70.3349 87.1364 69.931 85.8537C69.5966 84.7918 69.6501 83.4971 70.0758 81.9525C70.5065 80.4063 71.5842 78.9087 73.2823 77.4334C74.2415 80.4798 75.1983 83.5186 76.1552 86.5574ZM86.2924 92.924C85.9296 95.1538 84.6615 97.2684 82.4781 99.2261C81.4066 95.8233 80.3375 92.4279 79.2637 89.0175C81.026 88.1081 82.313 87.5916 83.1582 87.4982C84.6065 87.3269 85.5974 88.0453 86.1078 89.6663C86.4293 90.6874 86.4864 91.7745 86.2924 92.924Z" fill="#086219"/>
</g>
<defs>
<clipPath id="clip0_90_272">
<rect width="136" height="118" fill="white" transform="translate(0 40.8463) rotate(-17.4781)"/>
</clipPath>
</defs>
</svg>
